X: 1
T: the Hopeful Lover
R: march
S: handwritten page from Concord Slow Scottish Session collection "(Paddledoo Collection)"
Z: 2015 John Chambers <jc:trillian.mit.edu>
M: C|
L: 1/4
K: A
|: "A"AA ce | "A"aa "D"fe | "A"AA ce | "D"aa "E"f2 \
|  "A"AA ce | "D"aa "E"fe | "D"f>e "A"cA | "D"FF "A"A2 :|
|: "A"c>B cB | "A"ce fe | "A"c>B "F#m"ce | "Bm"c/B/A "E"B2 \
|  "A"c>B cB | "A"ce fe | "D"f/g/a/f/ "E7"eB | "A"c/B/A A2 :|
